X:1
T:Title
%%score { 1 | ( 2 3 ) }
L:1/8
M:4/4
K:Bb
V:1 treble nm="Grand Piano"
V:2 bass 
V:3 bass 
V:1
 z4 z2[Q:1/4=94] [B,D][CE] | [DF][Fd][Fd][Ec] [DB]2 [DB][Fd] | [Gc][GB][FA][EG] [DF]2 [DF][DF] | %3
 GGGB [=EB]2 [EA][EB] | c3 d c2 D[CE] | [DF][DF][DF][DB] [Fd]2 [FB][FB] | %6
[M:9/8] [Gc][GB][FA] [EG] [Ge]2- [Ge][Gd][Gc] |[M:4/4] cBAG F2 GA |[M:5/8] c- c3 [DB] | %9
[M:3/8] [DB][DB][DB] |[M:4/4] [CA]3 B c3 c |[M:17/16] [Ec][DB][FB]cd3/2[DB][DB][DB] | %12
[M:4/4] [CA]3 B c3 c |[M:9/8] [Ec][DB][FB] c d2- dD[CE] |[M:4/4] [DF][DF][DF][DB] [Fd]2 [FB][FB] | %15
[M:9/8] [Gc][GB][FA] [EG] [Ge]2- [Ge][Gd][Gc] |[M:4/4] cBAG F2 GA | %17
[M:13/8] c- c3 .[DB]2 z z z z z z2 |] %18
V:2
 z4 z2 [B,,F,][B,,F,] | [B,,B,][B,,B,][B,,B,][B,,F,] [B,,F,]2 [B,,F,][B,,B,] | %2
 [E,B,][E,B,][E,B,][E,B,] [B,,B,]2 [B,,B,][B,,B,] | %3
 [E,B,E][E,B,E][E,B,E][E,G,E] [C,G,]2 [C,C][C,B,] | A,4 z4 | %5
 [B,,B,][B,,B,][B,,B,][B,,B,] [B,,B,]2 [D,B,][D,B,] | %6
[M:9/8] [E,B,][E,B,][E,B,] [E,B,] [E,B,]2- [E,B,][E,E][E,E] | %7
[M:4/4] [F,DF][F,DF][F,CF][F,B,E] [F,A,E]2 [F,B,E][F,CE] |[M:5/8] [F,A,E]- [F,A,E]3 [B,,B,] | %9
[M:3/8] [B,,F,][B,,F,][B,,F,] |[M:4/4] z2 z D [F,A,E]3 [F,E] | %11
[M:17/16] [B,,F,][B,,F,][D,B,][K:treble][F,A,F][B,F]3/2[K:bass][B,,F,][B,,F,][B,,F,] | %12
[M:4/4] z2 z D [F,A,E]3 [F,E] | %13
[M:9/8] [B,,F,][B,,F,][D,B,][K:treble] [F,A,F] [B,F]2- [B,F][K:bass][B,,F,B,][B,,F,] | %14
[M:4/4] [B,,B,][B,,B,][B,,B,][B,,B,] [B,,B,]2 [D,B,][D,B,] | %15
[M:9/8] [E,B,][E,B,][E,B,] [E,B,] [E,B,]2- [E,B,][E,E][E,E] | %16
[M:4/4] [F,DF][F,DF][F,CF][F,B,E] [F,A,E]2 [F,B,E][F,CE] | %17
[M:13/8] [F,A,E]- [F,A,E]3 .[B,,B,]2 z z z z z z2 |] %18
V:3
 x8 | x8 | x8 | x8 | [F,F]3- [F,B,F] [F,A,F]2 [B,,F,B,][B,,F,] | x8 |[M:9/8] x9 |[M:4/4] x8 | %8
[M:5/8] x5 |[M:3/8] x3 |[M:4/4] F,4 z4 |[M:17/16] x3[K:treble] x5/2[K:bass] x3 |[M:4/4] F,4 z4 | %13
[M:9/8] x3[K:treble] x4[K:bass] x2 |[M:4/4] x8 |[M:9/8] x9 |[M:4/4] x8 |[M:13/8] x13 |] %18

